!!!OTL-incipit: EIN MAEDCHEN VON ACHTZEHN JAHREN
!!!ARE: Europa, Mitteleuropa, Deutschland, Westfalen
!!!SCT: Z0104
!!!TXL: @@DE
!!!YEM: Copyright 1995, estate of Helmut Schaffrath.
**kern	**text
*ICvox	*
*M3/4	*
*k[f#]	*
*e:	*
!LO:TX:a:t=Weſtphalen.	!
{4e	Ein
=1	=1
4e	Mäd-
4b/	-chen
4b/	von
=2	=2
(>4b/	acht-
4a)	.
4cc/	-ʒehn
=3	=3
(>2b/	Jah-
4g)	.
=4	=4
2f#}	-ren,
{8f#L	das
8gJ	.
=5	=5
4.a	hat-
8g	-te
8f#L	ʒwei
8gJ	.
=6	=6
4a	Frei-
4b/	-er
4g	ʒu-
=7	=7
2f#}	-gleich,
{8eL	der
8f#J	.
=8	=8
4.g	ei-
8f#	-ne
4e	der
=9	=9
4.g	war
8f#	.
4e	ein
=10	=10
(>2a	Schiffs-
4cc/)	.
=11	=11
2b/}	-mann,
{4a	der
=12	=12
4.g	an-
8f#	-dre
4e	ein
=13	=13
4.f#	Kauf-
8g	.
4f#	-manns-
=14	=14
2e}	-ſohn.
==	==
!!!Ag: Sagen - Lied, Romanze, Tod
!!!ONB: ESAC (Essen Associative Code) Database: ZUCCAL
!!!AMT: simple triple
!!!AIN: vox
!!!EED: Helmut Schaffrath
!!!EEV: 1.0
!!@@COMMENT:"In original two voices"
!!@@END:
!!!GTL: I. Ernste Romanzen und Sagen.
!!!URL-scan: https://www.digitale-sammlungen.de/de/view/bsb11160571?page=202
!!!ENC: Anna Maria Matuszewska
!!!EEV: 2025/01/27
*-	*-
